X: 179
T: I Come After Your Horses
C: Teton Sioux band 1911-1914
N: Derived from sioux174.krn
O: South Dakota, U.S.A.
N: Teton Sioux Music by Frances Densmore, 1918
Z: transcribed to **kern format by Craig Sapp
L: 1/16
M: 2/4
Q: 1/4=58
K: Bb clef=bass
%%linebreak <none>
D4D4 [I:setbarnb 2]| 
D C D DB,4 | 
B,4B,4 | 
D C D D2< B,2 D | 
B,2 G,2 F, F,3 | 
F,4F,4 | 
B, G, G, F,F,4 | 
F,4F, F, G, F, ||  
[M:3/4]D,2 D,2D,8 ||  
[M:2/4]G,2< B,2 (3B,2 B,2 B,2 ||  
[M:3/4](3(D2 C2) D2 B,2> C2 B,3 G, ||  
[M:2/4]F,4F,2 F,2 | 
D,2< F,2 F, F,2 B, ||  
[M:3/4](B,> G,) G,2 F,2< F,2F,4 ||  
[M:2/4]F,4F, F, G, F, | 
D,2> D,2D,4 | 
D,4D,4 |]  



